X: 21705
T: CAPTAIN KEELER
Q: "Reel."
%R: reel
B: W. Hamilton "Universal Tune-Book" Vol. 2 Glasgow 1846 p.170 #5 (and p.171 #1)
S: http://s3-eu-west-1.amazonaws.com/itma.dl.printmaterial/book_pdfs/hamiltonvol2web.pdf
Z: 2016 John Chambers <jc:trillian.mit.edu>
M: C
L: 1/8
K: Bb	% and Gm
% - - - - - - - - - - - - - - - - - - - - - - - - -
A |\
B2 (d/c/)B fBbB | B2 (d/c/B) AFcA |\
B2 (d/c/B) fBbB | cAFA BGG :| B |\
DGBG dGBG | DGBG AFcA |
DGBG dGBG | cAFA BGGB |\
DGBG dGBG | DGBG AFcA |\
DGBG dGBG | cAFA BGG |]
% - - - - - - - - - - - - - - - - - - - - - - - - -

% (Continued from previous page)

%%sep 1 1 500
%%sep 1 1 500

